!! 00000] TT[WS
!!!OTL: Yonghu balu jun
!!!ARE: Asia, China, Shanxi Zuoquan
!! Ethnic Group: Han
!! WII, 224 (1)
!!!SCT: J0732
!!!YEM: Copyright 1995, estate of Helmut Schaffrath.
**kern
*ICvox
*Ivox
!! Mixed meters:  2/4; 3/4
*M3/4
*k[f#]
*G:
{8dd
8dd
8ee
16dd
16dd
=1
8cc
8ee
2dd}
=2
*M2/4
{8dd
8b
8a
16b
16b
=3
*M3/4
8e
8g
2g}
=4
*M2/4
{8dd
8ee
8ee
16dd
16dd
=5
*M3/4
8cc
8b
2a}
=6
*M2/4
{8dd
8g
8f#
8e
=7
8a
8g
8f#
8e
=8
8d
16e
16e
8a
8e
=9
2d}
==
!!!AGN: Xiaodiao. XÅshi, Xinminge
!!!ONB: ESAC (Essen Associative Code) Database: CHINA
!!!AMT: irregular
!!!AIN: vox
!!!EED: Helmut Schaffrath
!!!EEV: 1.0
*-
